portfolio/ecw/static/images/icons/icon-star.svg

<?xml version="1.0" encoding="UTF-8"?>
<svg width="57px" height="56px" viewBox="0 0 57 56" version="1.1" xmlns="http://www.w3.org/2000/svg" xmlns:xlink="http://www.w3.org/1999/xlink">
    <!-- Generator: Sketch 54.1 (76490) - https://sketchapp.com -->
    <title>ico_komfortabel</title>
    <desc>Created with Sketch.</desc>
    <defs>
        <filter x="-24.5%" y="-25.0%" width="149.0%" height="150.0%" filterUnits="objectBoundingBox" id="filter-1">
            <feOffset dx="0" dy="2" in="SourceAlpha" result="shadowOffsetOuter1"></feOffset>
            <feGaussianBlur stdDeviation="2" in="shadowOffsetOuter1" result="shadowBlurOuter1"></feGaussianBlur>
            <feColorMatrix values="0 0 0 0 0   0 0 0 0 0   0 0 0 0 0  0 0 0 0.5 0" type="matrix" in="shadowBlurOuter1" result="shadowMatrixOuter1"></feColorMatrix>
            <feMerge>
                <feMergeNode in="shadowMatrixOuter1"></feMergeNode>
                <feMergeNode in="SourceGraphic"></feMergeNode>
            </feMerge>
        </filter>
        <polygon id="path-2" points="-1.6729849e-15 0 49 0 49 48 -1.6729849e-15 48"></polygon>
    </defs>
    <g id="Desktop-+-Mobile" stroke="none" stroke-width="1" fill="none" fill-rule="evenodd">
        <g id="WAT-ECW-MS-StartSeite-Home" transform="translate(-722.000000, -2634.000000)">
            <g id="2.1-Vorteile" transform="translate(127.000000, 2441.000000)">
                <g id="ico_komfortabel" transform="translate(599.000000, 195.000000)">
                    <g filter="url(#filter-1)">
                        <mask id="mask-3" fill="white">
                            <use xlink:href="#path-2"></use>
                        </mask>
                        <g id="Clip-2"></g>
                        <path d="M47.9352544,21.7519606 C48.9007327,20.7902302 49.2434906,19.3790681 48.8235468,18.0735759 C48.4101441,16.7613958 47.3216917,15.8210669 45.9872909,15.6231029 L34.1215893,13.861491 C33.6153019,13.7892609 33.1809675,13.4655631 32.9559509,12.9947299 L27.6523617,2.00104126 C27.0544978,0.767779201 25.8483041,0 24.4995126,0 C23.1546459,0 21.9432192,0.767779201 21.3505883,2.00104126 L16.0469991,12.9947299 C15.8167495,13.4655631 15.3824151,13.7892609 14.8761277,13.861491 L3.01042614,15.6284533 C1.6760253,15.8210669 0.59280579,16.7613958 0.174170232,18.0735759 C-0.240540617,19.3790681 0.0969843012,20.7902302 1.06246256,21.7519606 L9.6484162,30.3098897 C10.0160305,30.6763906 10.1795601,31.1980524 10.0932165,31.7157015 L8.06937521,43.7955167 C7.83912565,45.1545127 8.37550246,46.4974575 9.46395491,47.3067021 C10.5576403,48.1172843 11.9731518,48.2269671 13.1688796,47.5835841 L23.7786745,41.8787439 C24.2287077,41.6326265 24.7703175,41.6326265 25.2242754,41.8787439 L35.8340703,47.5835841 C36.3495154,47.8604662 36.9120569,47.9969008 37.4693655,47.9969008 C38.1941283,47.9969008 38.9201993,47.7668346 39.5337621,47.3067021 C40.6274475,46.4974575 41.1585913,45.1545127 40.9335747,43.7955167 L38.9045005,31.7157015 C38.8181569,31.1980524 38.9869194,30.6763906 39.3545337,30.3098897 L47.9352544,21.7519606 Z M36.973544,32.0554504 L38.9973853,44.1352657 C39.0994277,44.741196 38.8691781,45.321712 38.3785896,45.6868752 C37.893234,46.0480257 37.2796713,46.0894912 36.7485274,45.8072587 L26.1348078,40.1024185 C25.6232874,39.8295492 25.0607459,39.6891018 24.4995126,39.6891018 C23.9369711,39.6891018 23.3744296,39.8295492 22.8642175,40.1024185 L12.2544225,45.8072587 C11.7180457,46.0894912 11.1097159,46.0480257 10.6191274,45.6868752 C10.1337718,45.321712 9.90352224,44.741196 10.00164,44.1352657 L12.0294059,32.0554504 C12.2243331,30.8904057 11.8462529,29.6986091 11.0181394,28.8733133 L2.43218577,20.3153842 C1.99785138,19.8860163 1.85525364,19.2747357 2.03971494,18.6902069 C2.22810094,18.1043406 2.693833,17.6977119 3.2916969,17.608093 L15.1573985,15.8478188 C16.3021051,15.6806195 17.2937481,14.9436049 17.8039602,13.8828926 L23.1088576,2.88920396 C23.3744296,2.33543987 23.8964158,2.00639164 24.4995126,2.00639164 C25.1026095,2.00639164 25.6232874,2.33543987 25.8888594,2.88920396 L31.1989898,13.8828926 C31.7092019,14.9436049 32.6956119,15.6806195 33.8403185,15.8478188 L45.7073283,17.608093 C46.3051922,17.6977119 46.7696161,18.1043406 46.9593103,18.6902069 C47.1424633,19.2747357 46.9998656,19.8860163 46.5655312,20.3153842 L37.9795776,28.8733133 C37.1514641,29.6986091 36.7733839,30.8850553 36.973544,32.0554504 Z" id="Fill-1" fill="#CD171A" mask="url(#mask-3)"></path>
                    </g>
                </g>
            </g>
        </g>
    </g>
</svg>

<svg width="57" height="56" xmlns="http://www.w3.org/2000/svg" xmlns:xlink="http://www.w3.org/1999/xlink"><defs><filter x="-24.5%" y="-25%" width="149%" height="150%" filterUnits="objectBoundingBox" id="a"><feOffset dy="2" in="SourceAlpha" result="shadowOffsetOuter1"/><feGaussianBlur stdDeviation="2" in="shadowOffsetOuter1" result="shadowBlurOuter1"/><feColorMatrix values="0 0 0 0 0 0 0 0 0 0 0 0 0 0 0 0 0 0 0.5 0" in="shadowBlurOuter1" result="shadowMatrixOuter1"/><feMerge><feMergeNode in="shadowMatrixOuter1"/><feMergeNode in="SourceGraphic"/></feMerge></filter><path id="b" d="M0 0h49v48H0z"/></defs><g filter="url(#a)" transform="translate(4 2)" fill="none" fill-rule="evenodd"><mask id="c" fill="#fff"><use xlink:href="#b"/></mask><path d="M47.935 21.752a3.612 3.612 0 0 0 .889-3.678c-.414-1.313-1.502-2.253-2.837-2.45L34.122 13.86a1.534 1.534 0 0 1-1.166-.866L27.652 2C27.054.768 25.848 0 24.5 0a3.483 3.483 0 0 0-3.15 2.001l-5.303 10.994a1.55 1.55 0 0 1-1.17.866L3.01 15.628c-1.334.193-2.417 1.133-2.836 2.446a3.623 3.623 0 0 0 .888 3.678l8.586 8.558c.368.366.532.888.445 1.406L8.07 43.796a3.598 3.598 0 0 0 1.395 3.51 3.43 3.43 0 0 0 3.705.278l10.61-5.705c.45-.246.991-.246 1.445 0l10.61 5.705a3.436 3.436 0 0 0 3.7-.277c1.093-.81 1.625-2.152 1.4-3.511l-2.03-12.08a1.608 1.608 0 0 1 .45-1.406l8.581-8.558zM36.974 32.055l2.023 12.08a1.574 1.574 0 0 1-.618 1.552 1.502 1.502 0 0 1-1.63.12l-10.614-5.705a3.479 3.479 0 0 0-1.635-.413 3.47 3.47 0 0 0-1.636.413l-10.61 5.705a1.51 1.51 0 0 1-1.635-.12 1.591 1.591 0 0 1-.617-1.552l2.027-12.08a3.65 3.65 0 0 0-1.01-3.182l-8.587-8.558a1.58 1.58 0 0 1-.392-1.625 1.54 1.54 0 0 1 1.252-1.082l11.865-1.76a3.511 3.511 0 0 0 2.647-1.965l5.305-10.994a1.516 1.516 0 0 1 1.39-.883c.604 0 1.124.33 1.39.883l5.31 10.994a3.503 3.503 0 0 0 2.641 1.965l11.867 1.76c.598.09 1.063.496 1.252 1.082.183.585.04 1.196-.393 1.625l-8.586 8.558a3.627 3.627 0 0 0-1.006 3.182z" fill="#CD171A" mask="url(#c)"/></g></svg>
